X: 21501
M: 6/8
L: 1/8
K: C
V: 1
c2c cde | dBG GAB | cBA ABc | BGE E2 A/B/ |\
c2c cde | dBG GAB | cBA GE^G | A3 [A2A,2] :|
e/f/ |\
g>ag gfe | dBG GBd | a>ba a>ba | gee e2e |\
g>ag gfe | dBG GAB | cBA GE^G | A3 [A2A,2] :|


